!!!COM:	van Weerbeke, Gaspar
!!!CDT:	~1445//-~1517//
!!!OPR:	Quam pulchra es Cycle
!!!OTL:	O pulcherrima mulierum
!!!AGN:	Motet
!!!SMS:	Librone I
!!!SCT:	Gas2017d
!!!SCA:	Gas2017d
!!!voices-OPR: 4
!!!voices:	4
**kern	**text	**kern	**text	**kern	**text	**kern	**text
*staff4	*staff4	*staff3	*staff3	*staff2	*staff2	*staff1	*staff1
*Ivox	*	*Ivox	*	*Ivox	*	*Ivox	*
*I"Bassus	*	*I"Tenor	*	*I"Altus	*	*I"Superius	*
*I'B	*	*I'T	*	*I'A	*	*I'S	*
*clefF4	*	*clefGv2	*	*clefGv2	*	*clefG2	*
*k[b-]	*	*k[b-]	*	*k[b-]	*	*k[b-]	*
*M2/1	*	*M2/1	*	*M2/1	*	*M2/1	*
*met(C)	*	*met(C)	*	*met(C)	*	*met(C)	*
=1-	=1-	=1-	=1-	=1-	=1-	=1-	=1-
0G	O	0G	.	[0d	O	0g	O
=2	=2	=2	=2	=2	=2	=2	=2
1G	pul-	1B-	.	0d]	.	1g	pul-
1D	.	1A	.	.	.	1f	.
=3	=3	=3	=3	=3	=3	=3	=3
3%2E-V	-cher-	0G	.	1B-	pul-	1.b-	-cher-
3E-i\Z	-ri-	.	.	.	.	.	.
3.E-i\V	-ma,	.	.	2.B-\	-cher-	.	.
6F\	.	.	.	.	.	2g/	.
3G\Z	.	.	.	.	.	.	.
.	.	.	.	4c\	.	.	.
=4	=4	=4	=4	=4	=4	=4	=4
1D	.	1.F	.	4d\	.	2.a/	.
.	.	.	.	4e\	.	.	.
.	.	.	.	1f	.	.	.
.	.	.	.	.	.	4b-\	.
2A\	pul-	.	.	.	.	4cc\	.
.	.	.	.	.	.	4dd\	.
[2G\	-cher-	[2B-\	.	[2g\	-ri-	[2b-\	.
=5	=5	=5	=5	=5	=5	=5	=5
1G]	.	1B-]	.	4g\]	.	2b-\]	.
.	.	.	.	4f\	.	.	.
.	.	.	.	4e\	.	1g	.
.	.	.	.	4d\	.	.	.
1E	-ri-	1G	.	1c	.	.	.
.	.	.	.	.	.	4f/	.
.	.	.	.	.	.	4e/	.
=6	=6	=6	=6	=6	=6	=6	=6
1D	-ma	1A	.	1d	-ma	1f	.
1r	.	1r	.	1g	mu-	1b-	.
=7	=7	=7	=7	=7	=7	=7	=7
0r	.	0r	.	2e\	-li-	2cc\	.
.	.	.	.	2f\	.	1dd	.
.	.	.	.	2d\	.	.	.
.	.	.	.	[2g\	-e-	4cc\	.
.	.	.	.	.	.	4b-\	.
=8	=8	=8	=8	=8	=8	=8	=8
1r	.	1r	.	2g\]	.	2a/	.
.	.	.	.	2f#i\	.	2a/	-e-
1G	mu-	1B-	mu-	1g	-rum,	1g	-rum,
=9	=9	=9	=9	=9	=9	=9	=9
2E\	.	2c\	.	0r	.	0r	.
2F\	.	1d	.	.	.	.	.
2D\	.	.	.	.	.	.	.
[2G\	.	4c\	.	.	.	.	.
.	.	4B-\	.	.	.	.	.
=10	=10	=10	=10	=10	=10	=10	=10
2G\]	.	2A/	.	0r	.	0r	.
2F#i\	-li-	2A/	-li-	.	.	.	.
2.G\	-e-	2.G/	-e-	.	.	.	.
4Fni\	.	4A/	.	.	.	.	.
=11	=11	=11	=11	=11	=11	=11	=11
2G\	.	2B-\	.	0r	.	0r	.
2A\	.	2c\	.	.	.	.	.
2F\	.	2A/	.	.	.	.	.
2G\	.	[2d\	.	.	.	.	.
=12	=12	=12	=12	=12	=12	=12	=12
1E	.	2d\]	.	1r	.	0r	.
.	.	2c#i\	.	.	.	.	.
[1D	-rum,	[1d	-rum,	[1f	qua-	.	.
=13	=13	=13	=13	=13	=13	=13	=13
1D]	.	1d]	.	2f\]	.	1r	.
.	.	.	.	2f\	-lis	.	.
1G	qua-	[1B-	qua-	1g	est	[1dd	qua-
=14	=14	=14	=14	=14	=14	=14	=14
2G\	.	2B-\]	.	2g\	di-	2dd\]	.
2G\	-lis	2B-\	-lis	1g	-lec-	2dd\	-lis
[1C	est	1c	est	.	.	[1ee-	est
.	.	.	.	2g\	-tus	.	.
=15	=15	=15	=15	=15	=15	=15	=15
2C/]	.	2c\	di-	1g	tu-	2ee-\]	di-
2C/	di-	1c	-lec-	.	.	2ee-\	-lec-
1C	-lec-	.	.	4g\	.	1ee-	.
.	.	.	.	4f\	-us	.	.
.	.	2c\	-tus	4e-i\	.	.	.
.	.	.	.	4d\	.	.	.
=16	=16	=16	=16	=16	=16	=16	=16
1C	-tus	1c	tu-	1c	.	1ee-	-tus
[1G	tu-	1B-	-us	1d	ex	1dd	tu-
=17	=17	=17	=17	=17	=17	=17	=17
2G\]	.	2B-\	ex	2B-\	di-	2dd\	-us
2.B-\	-us	1.d	di-	1.G	-lec-	1dd	ex
4A\	.	.	.	.	.	.	.
2B-\	ex	.	.	.	.	2b-\	di-
=18	=18	=18	=18	=18	=18	=18	=18
1F	di-	2.c\	-lec-	1.A	-to	1.a	-lec-
.	.	4B-\	.	.	.	.	.
2F\	-lec-	2c\	.	.	.	.	.
2D\	-to	[2d\	-to	2F/	tu-	2a/	-to
=19	=19	=19	=19	=19	=19	=19	=19
1E	tu-	2d\]	.	1G	-o	1g	tu-
.	.	2c\	tu-	.	.	.	.
[1D	-o	2d\	-o-	2.A/	qui-	[1f	-o
.	.	[2f\	-qui-	.	.	.	.
.	.	.	.	4B-\	.	.	.
=20	=20	=20	=20	=20	=20	=20	=20
1D]	.	4f\]	.	2A/	.	1f]	.
.	.	4e\	.	.	.	.	.
.	.	2.f\	.	2.d\	.	.	.
1r	.	.	.	.	.	1r	.
.	.	4e\	.	4c\	.	.	.
.	.	2d\	-a	2d\	-a	.	.
=21	=21	=21	=21	=21	=21	=21	=21
0r	.	2c\	sic	2e\	sic	0r	.
.	.	2.d\	ad-	2.f\	ad-	.	.
.	.	4c\	.	4e\	.	.	.
.	.	2A/	.	2f\	.	.	.
=22	=22	=22	=22	=22	=22	=22	=22
0r	.	2G/	-iu	2g\	-iu-	0r	.
.	.	1c	ra-	1a	-ra-	.	.
.	.	2B-\	.	[2g\	.	.	.
=23	=23	=23	=23	=23	=23	=23	=23
0r	.	1A	-sti-	2g\]	.	0r	.
.	.	.	.	2f#i\	-sti	.	.
.	.	1G	-nos?	1g	nos?	.	.
=24	=24	=24	=24	=24	=24	=24	=24
2r	.	2r	.	2r	.	2r	.
2G\	Di-	2B-\	Di-	2d\	Di-	2g/	Di-
2G\	-lec-	2B-\	-lec-	2d\	-lec-	2g/	-lec-
2G\	-tu-	2B-\	-tus	2d\	-tus	2g/	-tus
=25	=25	=25	=25	=25	=25	=25	=25
1G	-me-	1B-	me-	2.d\	me-	1g	me-
.	.	.	.	4e\	.	.	.
2D\	-us	2A/	-us	2.f\	.	2a/	-us
[2F\	can-	[2A/	can-	.	.	[2a/	can-
.	.	.	.	4e\	.	.	.
=26	=26	=26	=26	=26	=26	=26	=26
2F\]	.	2A/]	.	2c\	-us	2a/]	.
2E\	.	2G/	.	1e	can-	2b-\	.
2F\	.	2F/	.	.	.	2a/	.
2D\	.	[2A/	.	[2d\	.	2f/	.
=27	=27	=27	=27	=27	=27	=27	=27
1E	-di-	2A/]	.	2d\]	.	1g	-di-
.	.	2G/	-di-	2c#i\	-di-	.	.
1D	-dus	1A	-dus	1d	-dus	1f	-dus
=28	=28	=28	=28	=28	=28	=28	=28
2r	.	2r	.	2r	.	2r	.
2D\	et	2A/	et	2d\	et	2a/	et
2D\	ru-	2A/	ru-	2d\	ru-	2a/	ru-
2D\	-bi-	2A/	-bi-	2d\	-bi-	2a/	-bi-
=29	=29	=29	=29	=29	=29	=29	=29
2G\	-cun-	2G/	-cun-	2d\	-cun-	2b-\	-cun-
1F	.	1c	.	1f	.	1a	.
2E\	.	2G/	.	2c\	.	[2g/	.
=30	=30	=30	=30	=30	=30	=30	=30
1D	-dus	1A	.	1d	.	2g/]	.
.	.	.	.	.	.	2f#i/	.
1r	.	[1G	-dus	1d	-dus	1g	-dus
=31	=31	=31	=31	=31	=31	=31	=31
0r	.	1G]	.	1r	.	2r	.
.	.	.	.	.	.	2dd\	e-
.	.	1r	.	2r	.	[1dd	-lec-
.	.	.	.	2d\	e-	.	.
=32	=32	=32	=32	=32	=32	=32	=32
0r	.	0r	.	1.d	-lec-	2dd\]	-tus-
.	.	.	.	.	.	2b-\	.
.	.	.	.	.	.	2.dd\	-ex
.	.	.	.	2B-\	-tus	.	.
.	.	.	.	.	.	4ee\	.
=33	=33	=33	=33	=33	=33	=33	=33
0r	.	0r	.	2.d\	ex	2.ff\	.
.	.	.	.	4e\	.	4ee\	.
.	.	.	.	2.f\	.	2cc\	.
.	.	.	.	.	.	2ff\	mi-
.	.	.	.	4e\	.	.	.
=34	=34	=34	=34	=34	=34	=34	=34
0r	.	0r	.	2c\	.	2ee\	.
.	.	.	.	2f\	mi-	2.dd\	.
.	.	.	.	2e\	.	.	.
.	.	.	.	.	.	4cc\	.
.	.	.	.	2g\	.	2b-\	.
=35	=35	=35	=35	=35	=35	=35	=35
1r	.	0r	.	2d\	.	2a/	.
.	.	.	.	2f\	.	1dd	.
1A	la-	.	.	1e	-li-	.	.
.	.	.	.	.	.	2cc#i\	-li-
=36	=36	=36	=36	=36	=36	=36	=36
1.B-	.	0r	.	1d	-bus,	1.dd	-bus,
.	.	.	.	1r	.	.	.
2A\	.	.	.	.	.	2cc\	.
=37	=37	=37	=37	=37	=37	=37	=37
2B-\	.	0r	.	1r	.	2dd\	.
1G	-bi-	.	.	.	.	2b-\	.
.	.	.	.	1a	la-	1a	.
2F\	.	.	.	.	.	.	.
=38	=38	=38	=38	=38	=38	=38	=38
2G\	-a	0r	.	1.b-	.	2g/	.
1d	il-	.	.	.	.	2r	.
.	.	.	.	.	.	1r	.
2c\	.	.	.	2a\	.	.	.
=39	=39	=39	=39	=39	=39	=39	=39
2d\	.	1r	.	2b-\	.	0r	.
2B-\	.	.	.	1g	-bi-	.	.
1A	-li-	1A	stil-	.	.	.	.
.	.	.	.	2f\	-a	.	.
=40	=40	=40	=40	=40	=40	=40	=40
1G	-us	1.B-	-lan-	2.g\	il-	0r	.
.	.	.	.	4f\	.	.	.
1r	.	.	.	2d\	.	.	.
.	.	2A/	.	2c\	.	.	.
=41	=41	=41	=41	=41	=41	=41	=41
1r	.	2B-\	-ti-	2d\	.	1r	.
.	.	1G	.	2B-\	.	.	.
1D	stil-	.	.	1A	-li-	1a	.
.	.	2F/	.	.	.	.	.
=42	=42	=42	=42	=42	=42	=42	=42
1.G	-lan-	2G/	-a,	2G/	-a,	1.b-	lan-
.	.	1d	stil-	1g	stil-	.	.
2A\	.	2c\	.	2f\	.	2a/	.
=43	=43	=43	=43	=43	=43	=43	=43
2D\	-gi-	2d\	-lan-	2g\	-lan-	2b-\	.
2G\	.	2B-\	.	1.d	-ti-	1g	.
1D	-a	1A	-ti-	.	.	.	.
.	.	.	.	.	.	2f#i/	-ti-
=44	=44	=44	=44	=44	=44	=44	=44
2r	.	1G	-a	1B-	-a	1g	-a
1G	myrr-	.	.	.	.	.	.
.	.	2d\	myrr-	1r	.	2b-\	myrr-
2E\	.	2e\	.	.	.	2cc\	.
=45	=45	=45	=45	=45	=45	=45	=45
2D\	.	2f\	.	2.d\	myrr-	2dd\	.
2G\	.	2g\	.	.	.	2b-\	.
.	.	.	.	4e\	.	.	.
2D\	-ham	2f\	-ham	2f\	-ham	2a/	-ham
[2G\	pri-	[2d\	pri-	[2g\	pri-	[2b-\	pri-
=46	=46	=46	=46	=46	=46	=46	=46
2G\]	.	2d\]	.	2g\]	.	2b-\]	.
2A\	.	1c	.	2e\	.	1a	.
2F\	.	.	.	2f\	.	.	.
2G\	.	2B-\	.	[2d\	-mam.	[2g/	.
=47	=47	=47	=47	=47	=47	=47	=47
1D	-mam.	1A	.	1d]	.	2g/]	.
.	.	.	.	.	.	2f#i/	.
*M3/1	*	*M3/1	*	*M3/1	*	*M3/1	*
*met(C3)	*	*met(C3)	*	*met(C3)	*	*met(C3)	*
1.G	Gut-	1.G	-mam.	1d	Gut-	1.g	-mam.
.	.	.	.	2d\	-tur	.	.
=48	=48	=48	=48	=48	=48	=48	=48
1E-i	-tur	1.G	Gut-	2.e-\	il-	1.g	Gut-
.	.	.	.	4d\	.	.	.
2E-i\	.	.	.	2c\	-li-	.	.
1.D	il-	1A	-tur	1.d	-us	1f	-tur
.	.	2B-\	il-	.	.	2f/	il-
=49	=49	=49	=49	=49	=49	=49	=49
1C	-li-	1c	-li-	1G	con-	1e	-li-
2D\	-us	2A/	-us	2F/	.	2f/	-us
1.E-i	con-	1.G	con-	1B-	.	1g	con-
.	.	.	.	2G/	-su-	2e/	-su-
=50	=50	=50	=50	=50	=50	=50	=50
1.D	-su-	1.d	-su-	1A	-a	2.f/	-a
.	.	.	.	.	.	4g/	.
.	.	.	.	2F/	.	2a/	.
1.G	-a-	1d	-a-	2.B-\	.	1b-	.
.	.	.	.	4A/	.	.	.
.	.	2e\	.	2B-\	.	2g/	.
=51	=51	=51	=51	=51	=51	=51	=51
1F	.	1f	.	1c	.	2.a/	.
.	.	.	.	.	.	4b-\	.
2E\	-vis-	2c\	-vis-	2G/	vis-	2cc\	vis-
1D	-si-	1f	-si-	1A	-si-	1dd	-si-
2A\	.	2e\	.	2a\	.	2cc\	.
=52	=52	=52	=52	=52	=52	=52	=52
2B-\	.	2d\	.	2g\	.	2b-\	.
1A	.	1e	.	1a	.	1cc	.
1D	-mus,	1d	-mus,	1f	-mus,	1dd	-mus,
2D\	et	2f\	et	2a\	et	2dd\	et
=53	=53	=53	=53	=53	=53	=53	=53
1A	to-	1e	to-	1a	to-	1cc	to-
2A\	-tus	2e\	-tus	2a\	-tus	2cc\	-tus
2D\	de-	2d\	de-	2a\	de-	2dd\	de-
2D\	-si-	2d\	-si-	2a\	-si-	2dd\	-si-
2D\	-de-	2f\	-de-	2a\	-de	2dd\	-de-
=54	=54	=54	=54	=54	=54	=54	=54
1A	-ra-	1e	-ra-	1a	ra-	1cc	-ra-
2A\	-bi-	2e\	-bi-	2a\	-bi-	2cc\	-bi-
1D	-lis.	1.d	-lis.	1.f	-lis.	1.dd	-lis.
2D\	Ta-	.	.	.	.	.	.
=55	=55	=55	=55	=55	=55	=55	=55
1C	.	1e	Ta-	1g	Ta-	1.r	.
2C/	-lis	2e\	-lis	2g\	-lis	.	.
1D	est	1d	est	2.f\	est	1ff	Ta-
.	.	.	.	4g\	.	.	.
2r	.	2c\	di-	2a\	.	2ee\	.
=56	=56	=56	=56	=56	=56	=56	=56
0.r	.	2B-\	-lec-	2b-\	lec-	2dd\	.
.	.	2c\	.	2a\	.	1cc	.
.	.	2A/	-tus	2f\	-tus	.	.
.	.	1G	me-	1g	me-	1b-	-lis
.	.	2A/	.	2f\	.	2a/	est
=57	=57	=57	=57	=57	=57	=57	=57
2G\	di-	1B-	.	2d\	.	2g/	di-
2D\	-lec-	.	.	2f\	.	2f/	-lec-
2E\	-tus	2G/	.	2e\	.	2g/	-tus
1D	me-	1.F	-us,	1f	-us,	1a	me-
2D\	-us,	.	.	2r	.	2a/	-us,
=58	=58	=58	=58	=58	=58	=58	=58
1G	et	1.B-	et	1d	et	2.g/	et
.	.	.	.	.	.	4f/	.
2G\	ip-	.	.	2d\	ip-	2g/	.
1D	-se	1A	ip-	1d	-se	1a	ip-
2G\	a-	2B-\	-se	2e\	a-	2g/	-se
=59	=59	=59	=59	=59	=59	=59	=59
2.F\	-mi-	1.c	a-	1.f	-mi-	2.a/	a-
4G\	.	.	.	.	.	4b-\	.
2A\	.	.	.	.	.	2cc\	.
1G	-cus	1d	-mi-	1g	-cus	2.b-\	-mi-
.	.	.	.	.	.	4a/	.
2G\	me-	2B-\	-cus	[2e\	me-	2g/	-cus
=60	=60	=60	=60	=60	=60	=60	=60
2C/	.	2c\	me-	2e\]	.	1g	me-
1D	-us,	1A	.	1d	.	.	.
.	.	.	.	.	.	2f#i/	.
1.r	.	[1.G	-us,	1.d	-us,	1g	-us,
.	.	.	.	.	.	2r	.
=61	=61	=61	=61	=61	=61	=61	=61
1B-	fi-	1G]	.	1r	.	1dd	fi-
2G\	-li-	2r	.	2g\	fi-	2dd\	-li-
2F\	.	1d	fi-	2a\	.	2.ff\	-e
1B-	-e	.	.	2f\	-li-	.	.
.	.	.	.	.	.	4ee\	.
.	.	2d\	-li-	2g\	.	2dd\	Hie-
=62	=62	=62	=62	=62	=62	=62	=62
2F\	Hie-	2.f\	-e	1a	-e	1cc	-ru
1B-	.	.	.	.	.	.	.
.	.	4e\	.	.	.	.	.
.	.	2d\	Hie-	2g\	Hie-	2b-\	.
1F	-ru-	1c	-ru-	2.f\	-ru	1a	.
.	.	.	.	4e\	.	.	.
2G\	.	2B-\	.	2d\	.	2g/	.
=63	=63	=63	=63	=63	=63	=63	=63
2.D\	.	2.A/	.	2.d\	.	2.f/	.
4G\	.	4B-\	.	4B-\	.	4g/	.
2F\	.	2A/	.	2c\	.	4a/	.
.	.	.	.	.	.	4b-\	.
2.A\	.	2.F/	.	1f	.	2.cc\	.
4B-\	.	4G/	.	.	.	4b-\	.
2c\	.	4A/	.	2e\	.	4a/	.
.	.	4B-\	.	.	.	4g/	.
=64	=64	=64	=64	=64	=64	=64	=64
2A\	.	2c\	.	2f\	.	2a/	.
1G	.	2d\	.	1g	.	2.b-\	.
.	.	2B-\	.	.	.	.	.
.	.	.	.	.	.	4a/	.
2C/	.	2c\	.	2e\	.	1g	.
1D	-sa-	1A	-sa-	1d	sa-	.	.
.	.	.	.	.	.	2f#i/	sa-
=65	=65	=65	=65	=65	=65	=65	=65
0.Gl	-lem.	0.Gl	-lem.	0.dl	-lem.	0.gl	-lem.
==	==	==	==	==	==	==	==
*-	*-	*-	*-	*-	*-	*-	*-
!!!RDF**kern: l=long note in original notation
!!!RDF**kern: i=editorial accidental
!!!RDF**kern: V=start of tuplet marker
!!!RDF**kern: Z=end of tuplet marker
!!!ENC:	BOKULICH 12/05/13
!!!END:	2016/03/29/
!!!EED:	Jesse Rodin
!!!EEV:	2016/03/30/
!!!ONB:	Translated from MusicXML and edited on 2016/03/30/ by Craig Sapp
!!muse2ps: C^@{COM}\nSource: @{SMS}^i2I150v85,85,85,150Q16c82
!!muse2ps: T^@{OPR}^u^4. @{OTL}^
